!!!!SEGMENT: pl-wtm--r-256-m_moniuszko-stanislaw--zosia.krn
!!!cenid: 18xx:1661
!!!COM: Moniuszko, Stanisław
!!!COM-rism: pe30008351
!!!CDT: 1819/05/05-1872/06/04
!!!CNT: Polish
!!!OTL: Zosia
!!!PDT:
!!!AGN: Secular
!!!SMS-siglum: PL-Wtm
!!!SMS-shelfmark: R 256/M
!!!NIFC-rismID: 1001063795
!!!URL-scan: http://repozytorium.nifc.pl/skany/pl-wtm-nut--r229m
!!!ONB-nifc:
!!!SMS-variant:
!!!SMS-altvar:
**kern	**kern	**dynam	**kern	**text	**dynam
*part2	*part2	*part2	*part1	*part1	*part1
*staff3	*staff2	*	*staff1	*staff1	*
*	*I"[Fortepian]	*	*I"[Głos]	*	*
*	*I'pf	*	*I'V	*	*
*clefF4	*clefG2	*	*clefG2	*	*
*	*ok[f#]	*	*ok[f#]	*	*
*k[f#]	*k[f#]	*	*k[f#]	*	*
*M6/8	*M6/8	*	*M6/8	*	*
*>[A,A1,A,A2,A,A3]	*>[A,A1,A,A2,A,A3]	*	*>[A,A1,A,A2,A,A3]	*	*
=1	=1	=1	=1	=1	=1
!!LO:TX:t=P:problem:4/, 8/, 16/middle or right:global
!!LO:TX:t=P:problem:all\left or right:global
!	!LO:TX:b:i:t=legierissimo.	!	!LO:TX:a:i:u:t=No 40. Zosia.	!	!
2.ryy	(8.g\L	.	2.r	.	.
.	16dd\L	.	.	.	.
.	16ee\	.	.	.	.
.	16gg\JJ	.	.	.	.
.	16ddd\LL	.	.	.	.
.	16eee\	.	.	.	.
.	16ggg\	.	.	.	.
.	16eee\	.	.	.	.
.	16ddd\	.	.	.	.
.	16gg\JJ	.	.	.	.
=2	=2	=2	=2	=2	=2
*	*^	*	*	*	*
4r	16ee/LL	4.ryy	.	2.r	.	.
.	16dd/	.	.	.	.	.
.	16g/	.	.	.	.	.
.	16dd/	.	.	.	.	.
8r	16ee/	.	.	.	.	.
.	16gg/JJ	.	.	.	.	.
8D\L|	8ff#/L)|	8f#\L	.	.	.	.
8E\|	8ee/|	8g\	.	.	.	.
8F#\J|	8dd/J|	8a\J	.	.	.	.
*	*v	*v	*	*	*	*
=3!|:	=3!|:	=3!|:	=3!|:	=3!|:	=3!|:
*>A	*>A	*	*>A	*	*
*^	*	*	*	*	*
8r	4.GG\	8g/L 8b	.	8b\	Tu	.
8G/L	.	8b/ 8dd	.	8dd\	nieg-	.
[8D/J	.	8a#X/J 8cc#X	.	8cc#X\	-dyś	.
!	!	!LO:SIC:v:n=2:s=8ccn	!	!	!	!
8D/L]	4.GG\	8an/L 8cc#	.	8ccn\	w_wio-	.
8G/	.	[8cc#/ 8ee	.	8ee\	-sny	.
(8D/J	.	8f#/J 8cc#] 8dd	.	8dd\	po-	.
!!LO:LB:g=original
=4	=4	=4	=4	=4	=4	=4
.	.	8qdd/	.	.	.	.
*	*	*^	*	*	*	*
8G/L)	2.GG\	8.g/L	4.B\	.	4.g/	-ran-	.
8D/	.	.	.	.	.	.	.
.	.	16f#/K	.	.	.	.	.
8G/J	.	8g/J	.	.	.	.	.
!LO:TX:a:t=cres_cen_do.:problem:dynamics with extention lines	!	!LO:TX:t=P:problem:skreślona nuta 8.f	!	!	!	!	!
!	!	!	!	!LO:HP:t=cres_cen_do:ext=ut	!	!	!
(<8F#/L	.	8.a/L	4.d\	<	8a/	ki	.
8D/	.	.	.	.	8g/	naj-	.
!	!	!LO:TX:t=P:problem:skreślona nuta 16e	!	!	!	!	!
.	.	16g/K	.	.	.	.	.
8F#/J)	.	8a/J	.	.	8a/	-pięk-	.
=5	=5	=5	=5	=5	=5	=5	=5
*	*2\right	*	*	*	*	*	*
8G/L	2.GG\	8.g/L 8.b	4.ryy	.	8.b/L	-niej-	.
8D/	.	.	.	.	.	.	.
.	.	16f#/K 16a	.	.	16a#X/Jk	.	.
8G/J	.	8g/J 8b	.	.	8b\	-sza	.
!	!	!	!	!	!LO:SIC:l:v:s=z_te	!	!
8A/L	.	8.dd/L	4f#\	.	8dd\L	s_te-	.
8D/	.	.	.	.	8cc#X\J	.	.
.	.	16cc/K	.	.	.	.	.
8A/J	.	8dd/J	8ryy	[	8dd\	-go	.
=6	=6	=6	=6	=6	=6	=6	=6
8B/L	2.GG\	[4.gg/	4.g\	>	[4.gg\	sio-	.
8D/	.	.	.	.	.	.	.
8B/J	.	.	.	.	.	.	.
!LO:TX:t=P:problem:skreślona nuta 8A	!	!	!	!	!	!	!
8c/L	.	8gg/L]	4.a\	.	4gg\]	.	.
8D/	.	16ff#/L	.	.	.	.	.
.	.	16ee/	.	.	.	.	.
8A/J	.	16dd/	.	.	8dd\	-ła,	.
.	.	16cc/JJ	.	.	.	.	.
*	*	*v	*v	*	*	*	*
=7	=7	=7	=7	=7	=7	=7
8r	2.GG\	8b/L	]	8b\	Zo-	.
(8B/L	.	8d/ 8dd	.	8dd\	-sia	.
8A#X/J	.	8e/J 8cc#X	.	8cc#X\	pa-	.
8An/L	.	8f#/L 8ccn	.	8ccn\	-sa-	.
8G/	.	8g/ 8ee	.	8ee\	-ją	.
8F#/J	.	8a/J 8dd	.	8dd\	ba-	.
!!LO:LB:g=original
=8	=8	=8	=8	=8	=8	=8
.	.	8qdd/	.	.	.	.
8G/L)	4.GG\	4.B/ 4.g	.	4.g/	-ran-	.
(<16D/L	.	.	.	.	.	.
16E/J)	.	.	.	.	.	.
[8G/J	.	.	.	.	.	.
.	.	8qdd/	.	.	.	.
8G/L]	4.GG\	4.d/ 4.a	.	4.a/	-ki	.
(<16D/L	.	.	.	.	.	.
16F#/J)	.	.	.	.	.	.
[8G/J	.	.	.	.	.	.
=9	=9	=9	=9	=9	=9	=9
*	*	*^	*	*	*	*
*	*	*	*2\right	*	*	*	*
!	!LO:TX:t=P:problem:mixed beam	!	!	!	!	!	!
8G/]	8GG/L	4.b/	2.g\	.	8.b\	ska-	.
8ryy	(>8G\	.	.	.	.	.	.
.	.	.	.	.	16a\	-cze	.
8ryy	8F#\J	.	.	.	8b\	i	.
!	!LO:TX:t=P:problem:mixed beam	!	!	!	!	!	!
4.ryy	8E\L	4.cc#X/	.	.	8cc#X/	śpie-	.
.	8AA/)	.	.	.	8b/	-wa	.
.	[8A\J	.	.	.	8cc#/	we-	.
*v	*v	*	*	*	*	*	*
=10	=10	=10	=10	=10	=10	=10
8D\ 8A]	8dd/	8f#\	.	4dd\	-so-	.
8r	8r	8ryy	.	.	.	.
!	!	!	!	!LO:TX:a:t=dolce	!	!
8r	8r	2ryy	.	16cc#X\	-ła,	.
.	.	.	.	16dd\	la	.
(4.BB/	8r	.	.	4gg\	la	.
.	8B/ 8d 8g	.	.	.	.	.
.	8r	.	.	16cc#\	la	.
.	.	.	.	16dd\	la	.
*	*v	*v	*	*	*	*
=11	=11	=11	=11	=11	=11
4.C/	8r	.	4ff#\	la	.
.	8A/ 8d 8f#	.	.	.	.
.	8r	.	16cc#X\	la	.
.	.	.	16dd\	la	.
4.BB/	8r	.	8gg\	la	.
.	8B/ 8d 8g	.	8r	.	.
!	!	!	!	!	!LO:DY:a
.	8r	.	16cc#\	la	<
.	.	.	16dd\	la	[[
!!LO:LB:g=original
=12	=12	=12	=12	=12	=12
!	!	!LO:DY:b=2	!	!	!LO:DY:a
4.CC/ 4.C	8r	sf	[4.ff#^\	la	f
.	8A/L 8d#X 8f#	.	.	.	.
.	8A/J 8d# 8f#	.	.	.	.
4.CC#X/) 4.C#X	8r	.	8ff#\L]	.	.
.	8A/L 8e 8g	.	8ee\J	.	.
.	8A/J 8e 8g	.	8g/	la	.
=13	=13	=13	=13	=13	=13
*	*^	*	*	*	*
!LO:TX:t=P:problem:mixed beam	!	!	!	!	!	!LO:DY:a
(8D\L	8r	4.ryy	.	(8b\	la,	<
8DD^/J)	(8d^>/L 8g 8b	.	.	4dd\)	.	[
8r	8c#X/J 8a#X	.	.	.	.	.
!LO:TX:t=P:problem:mixed beam	!	!	!	!	!	!LO:DY:a
(8D\L	8.an/L	4.cn\	.	(8a\	la	<
8DD^/J)	.	.	.	(4dd\)	.	[
.	16e/K	.	.	.	.	.
8r	8f#/J)	.	.	.	.	.
*	*v	*v	*	*	*	*
=14	=14	=14	=14	=14	=14
!LO:TX:t=P:problem:mixed beam	!	!	!	!	!
8GG/L	(8.B^^/L 8.g	.	4g/)	.	.
8D\ 8B	.	.	.	.	.
!	!LO:TX:b:t=scherzando.	!	!	!	!
.	16dd/L	.	.	.	.
8GG/J	16ee/	.	8r	.	.
.	16gg/JJ	.	.	.	.
!LO:TX:t=P:problem:mixed beam	!	!	!	!	!
8D\L 8B	16ddd\LL	.	4r	.	.
.	16eee\	.	.	.	.
8GG/	16ggg\	.	.	.	.
.	16eee\	.	.	.	.
8D\J 8B	16ddd\	.	8r	.	.
.	16gg\JJ	.	.	.	.
=15	=15	=15	=15	=15	=15
!LO:TX:t=P:problem:mixed beam	!	!	!	!	!
8GG/L	16ee/LL	.	2.r	.	.
.	16dd/	.	.	.	.
8D\ 8B	16g/	.	.	.	.
.	16dd/	.	.	.	.
8GG/J	16ee/	.	.	.	.
.	16gg/JJ)	.	.	.	.
!LO:TX:t=P:problem:mixed beam	!	!	!	!	!
8D\L 8c	8a/L 8ff#|	.	.	.	.
8GG/	8g/ 8ee|	.	.	.	.
8D\J 8c	8f#/J 8dd|	.	.	.	.
!!LO:PB:g=original
=16	=16	=16	=16	=16	=16
!LO:TX:t=P:problem:mixed beam	!	!	!	!	!
8GG/L	8.g^^\L	.	2.r	.	.
8D\ 8B	.	.	.	.	.
.	16dd\L	.	.	.	.
8GG/J	16ee\	.	.	.	.
.	16gg\JJ	.	.	.	.
!LO:TX:t=P:problem:mixed beam	!	!	!	!	!
8D\L 8B	16ddd\LL	.	.	.	.
.	16eee\	.	.	.	.
8GG/	16ggg\	.	.	.	.
.	16eee\	.	.	.	.
8D\J 8B	16ddd\	.	.	.	.
.	16gg\JJ	.	.	.	.
=17	=17	=17	=17	=17	=17
*>A1	*>A1	*	*>A1	*	*
!LO:TX:t=P:problem:mixed beam	!	!	!	!	!
!	!	!	!LO:TX:a:t=1. 2.	!	!
8GG/L	16ee/LL	.	2.r	.	.
.	16dd/	.	.	.	.
8D\ 8B	16g/	.	.	.	.
.	16dd/	.	.	.	.
8GG/J	16ee/	.	.	.	.
.	16gg/JJ	.	.	.	.
!LO:TX:t=P:problem:mixed beam	!	!	!	!	!
8D\L 8A	8a/L 8ff#	.	.	.	.
8DD/	8e/ 8g	.	.	.	.
8D\J 8A	8f#/J 8a	.	.	.	.
=18:|!	=18:|!	=18:|!	=18:|!	=18:|!	=18:|!
*^	*	*	*	*	*
*>A	*>A	*	*>A	*	*	*
!	!	!	!	!LO:TX:a:t=2ga Strofa.	!	!
8ryy	4.GG\yy	8g/Lyy 8byy	.	8b\L	O-	.
8G/Lyy	.	8b/yy 8yydd	.	8dd\J	.	.
[8D/Jyy	.	8a#X/Jyy 8cc#Xyy	.	8cc#X\	-leś	.
!	!	!LO:SIC:v:n=2:s=8ccn	!	!	!	!
8D/L]yy	4.GG\yy	8an/Lyy 8cc#yy	.	8ccn\L	za	.
8G/yy	.	[8cc#/yy 8eyye	.	8ee\J	.	.
(8D/Jyy	.	8f#/Jyy 8cc#]yy 8dyyd	.	8dd\	go-	.
=19	=19	=19	=19	=19	=19	=19
.	.	8qdd/yy	.	.	.	.
*	*	*^	*	*	*	*
8G/L)yy	2.GG\yy	8.g/Lyy	4.B\yy	.	4g/	-łąb-	.
8D/yy	.	.	.	.	.	.	.
.	.	16f#/Kyy	.	.	.	.	.
8G/Jyy	.	8g/Jyy	.	.	8g/	-ków	.
!LO:TX:a:t=cres_cen_do.:problem:dynamics with extention lines	!	!LO:TX:t=P:problem:skreślona nuta 8.f	!	!	!	!	!
!	!	!	!	!LO:HP:t=cres_cen_do:ext=ut	!	!	!
(8F#/Lyy	.	8.a/Lyy	4.d\yy	<	8.a\	pa-	.
8D/yy	.	.	.	.	.	.	.
!	!	!LO:TX:t=P:problem:skreślona nuta 16e	!	!	!	!	!
.	.	16g/Kyy	.	.	16g\	-rę	.
8F#/J)yy	.	8a/Jyy	.	.	8a\	chciał	.
=20	=20	=20	=20	=20	=20	=20	=20
8G/Lyy	2.GG\yy	8.g/Lyy 8.byy	4.ryy	.	8.b\	raz	.
8D/yy	.	.	.	.	.	.	.
.	.	16f#/Kyy 16ayy	.	.	16a#X\	po-	.
8G/Jyy	.	8g/Jyy 8byy	.	.	8b\	-ca-	.
8A/Lyy	.	8.dd/Lyy	4f#\yy	.	8.dd\L	-ło-	.
8D/yy	.	.	.	.	.	.	.
.	.	16cc/Kyy	.	.	16cc#X\Jk	.	.
8A/Jyy	.	8dd/Jyy	8ryy	[	8dd\	-wać	.
!	!	!	!	!	!LO:LB:g=original	!	!
=21	=21	=21	=21	=21	=21	=21	=21
8B/Lyy	2.GG\yy	[4.gg/yy	4.g\yy	>	[4.gg\	w_us-	.
8D/yy	.	.	.	.	.	.	.
8B/Jyy	.	.	.	.	.	.	.
!LO:TX:t=P:problem:skreślona nuta 8A	!	!	!	!	!	!	!
8c/Lyy	.	8gg/L]yy	4.a\yy	.	4gg\]	.	.
8D/yy	.	16ff#/Lyy	.	.	.	.	.
.	.	16ee/yy	.	.	.	.	.
8A/Jyy	.	16dd/yy	.	.	8dd\	-ta,	.
.	.	16cc/JJyy	.	.	.	.	.
*	*	*v	*v	*	*	*	*
=22	=22	=22	=22	=22	=22	=22
8ryy	2.GG\yy	8b/Lyy	]	8b\L	lecz	.
(8B/Lyy	.	8d/yy 8ddyy	.	8dd\J	.	.
8A#X/Jyy	.	8e/Jyy 8cc#Xyy	.	8cc#X\	i	.
8An/Lyy	.	8f#/Lyy 8ccnyy	.	8ccn\L	proź-	.
8G/yy	.	8g/yy 8eeyy	.	8ee\J	.	.
8F#/Jyy	.	8a/Jyy 8ddyy	.	8dd\	-bę	.
=23	=23	=23	=23	=23	=23	=23
.	.	8qdd/yy	.	.	.	.
8G/L)yy	4.GG\yy	4.B/yy 4.gyy	.	4g/	i	.
(<16D/Lyy	.	.	.	.	.	.
16E/J)yy	.	.	.	.	.	.
[8G/Jyy	.	.	.	8g/	o-	.
.	.	8qdd/yy	.	.	.	.
8G/L]yy	4.GG\yy	4.d/yy 4.ayy	.	8.a/	-fia-	.
(<16D/Lyy	.	.	.	.	.	.
16F#/J)yy	.	.	.	16g/	-rę	.
[8G/Jyy	.	.	.	8a/	wy-	.
=24	=24	=24	=24	=24	=24	=24
*	*	*^	*	*	*	*
!	!LO:TX:t=P:problem:mixed beam	!	!	!	!	!	!
8G/]yy	8GG/Lyy	4.b/yy	2.g\yy	.	8.b\	-śmia-	.
8ryy	(>8G\yy	.	.	.	.	.	.
.	.	.	.	.	16a#X\	-ła	.
8ryy	8F#\Jyy	.	.	.	8b\	dziew-	.
!	!LO:TX:t=P:problem:mixed beam	!	!	!	!	!	!
4.ryy	8E\Lyy	4.cc#X/yy	.	.	8cc#X\L	-czy-	.
.	8AA/)yy	.	.	.	8b\J	.	.
.	[8A\Jyy	.	.	.	8cc#\	-na	.
*v	*v	*	*	*	*	*	*
!	!	!	!	!LO:LB:g=original	!	!
=25	=25	=25	=25	=25	=25	=25
8D\yy 8A]yy	8dd/yy	8f#\yy	.	4dd\	pu-	.
8ryy	8ryy	8ryy	.	.	.	.
8ryy	8ryy	2ryy	.	16cc#X\	-sta	.
.	.	.	.	16dd\	La	.
!	!	!	!	!LO:TX:a:t=etc.	!	!
(4.BB/yy	8ryy	.	.	4gg\	la...	.
.	8B/yy 8dyy 8gyy	.	.	.	.	.
.	8ryy	.	.	16cc#\yy	[la	.
.	.	.	.	16dd\yy	la	.
*	*v	*v	*	*	*	*
=26	=26	=26	=26	=26	=26
4.C/yy	8ryy	.	4ff#\yy	la	.
.	8A/yy 8dyy yy8f#yy	.	.	.	.
.	8ryy	.	16cc#X\yy	la	.
.	.	.	16dd\yy	la	.
4.BB/yy	8ryy	.	8gg\yy	la	.
.	8B/yy 8dyy 8gyy	.	8ryy	.	.
.	8ryy	.	16cc#\yy	la	.
.	.	.	16dd\yy	la	.
=27	=27	=27	=27	=27	=27
!	!	!LO:DY:b=2	!	!	!
4.CC/yy 4.Cyy	8ryy	sf	[4.ff#\yy	la	.
.	8A/Lyy 8d#Xyy 8f#yy	.	.	.	.
.	8A/Jyy 8d#yy 8f#yy	.	.	.	.
4.CC#X/)yy 4.C#Xyy	8ryy	.	8ff#\L]yy	.	.
.	8A/Lyy 8eyy 8gyy	.	8ee\Jyy	la	.
.	8A/Jyy 8eyy 8gyy	.	8g/yy	la	.
=28	=28	=28	=28	=28	=28
*	*^	*	*	*	*
!LO:TX:t=P:problem:mixed beam	!	!	!	!	!	!
(8D\Lyy	8ryy	4.ryy	.	(8b\yy	la	.
8DD^/J)yy	(8d^>/Lyy 8gyy 8byy	.	.	4dd\)yy	.	.
8ryy	8c#X/Jyy 8a#Xyy	.	.	.	.	.
!LO:TX:t=P:problem:mixed beam	!	!	!	!	!	!
(8D\Lyy	8.an/Lyy	4.cn\yy	.	8a\yy	la	.
8DD^/J)yy	.	.	.	4dd\yy	.	.
.	16e/Kyy	.	.	.	.	.
8ryy	8f#/J)yy	.	.	.	.	.
*	*v	*v	*	*	*	*
=29	=29	=29	=29	=29	=29
!LO:TX:t=P:problem:mixed beam	!	!	!	!	!
8GG/Lyy	(8.B^^/Lyy 8.gyy	.	4g/yy	la]	.
8D\yy 8Byy	.	.	.	.	.
!	!LO:TX:b:t=scherzando.	!	!	!	!
.	16dd/Lyy	.	.	.	.
8GG/Jyy	16ee/yy	.	8ryy	.	.
.	16gg/JJyy	.	.	.	.
!LO:TX:t=P:problem:mixed beam	!	!	!	!	!
8D\Lyy 8Byy	16ddd\LLyy	.	4ryy	.	.
.	16eee\yy	.	.	.	.
8GG/yy	16ggg\yy	.	.	.	.
.	16eee\yy	.	.	.	.
8D\Jyy 8Byy	16ddd\yy	.	8ryy	.	.
.	16gg\JJyy	.	.	.	.
=30	=30	=30	=30	=30	=30
!LO:TX:t=P:problem:mixed beam	!	!	!	!	!
8GG/Lyy	16ee/LLyy	.	2.ryy	.	.
.	16dd/yy	.	.	.	.
8D\yy 8Byy	16g/yy	.	.	.	.
.	16dd/yy	.	.	.	.
8GG/Jyy	16ee/yy	.	.	.	.
.	16gg/JJ)yy	.	.	.	.
!LO:TX:t=P:problem:mixed beam	!	!	!	!	!
8D\Lyy 8yyc	8a/Lyy 8ff#yy|	.	.	.	.
8GG/yy	8g/yy 8eeyy|	.	.	.	.
8D\Jyy 8cyy	8f#/Jyy 8ddyy|	.	.	.	.
=31	=31	=31	=31	=31	=31
!LO:TX:t=P:problem:mixed beam	!	!	!	!	!
8GG/Lyy	8.g^^\Lyy	.	2.ryy	.	.
8D\yy 8yyB	.	.	.	.	.
.	16dd\Lyy	.	.	.	.
8GG/Jyy	16ee\yy	.	.	.	.
.	16gg\JJyy	.	.	.	.
!LO:TX:t=P:problem:mixed beam	!	!	!	!	!
8D\Lyy 8yyB	16ddd\LLyy	.	.	.	.
.	16eee\yy	.	.	.	.
8GG/yy	16ggg\yy	.	.	.	.
.	16eee\yy	.	.	.	.
8D\Jyy 8Byy	16ddd\yy	.	.	.	.
.	16gg\JJyy	.	.	.	.
=32	=32	=32	=32	=32	=32
*>A2	*>A2	*	*>A2	*	*
!LO:TX:t=P:problem:mixed beam	!	!	!	!	!
8GG/Lyy	16ee/LLyy	.	2.ryy	.	.
.	16dd/yy	.	.	.	.
8D\yy 8Byy	16g/yy	.	.	.	.
.	16dd/yy	.	.	.	.
8GG/Jyy	16ee/yy	.	.	.	.
.	16gg/JJyy	.	.	.	.
!LO:TX:t=P:problem:mixed beam	!	!	!	!	!
8D\Lyy 8Ayy	8a/Lyy 8ff#yy	.	.	.	.
8DD/yy	8e/yy 8gyy	.	.	.	.
8D\Jyy 8Ayy	8f#/Jyy 8ayy	.	.	.	.
=33:|!-	=33:|!-	=33:|!-	=33:|!-	=33:|!-	=33:|!-
*>A	*>A	*	*>A	*	*
*^	*	*	*	*	*
!	!	!	!	!LO:TX:a:t=3cia Strofa	!	!
8ryy	4.GG\yy	8g/Lyy 8byy	.	8b\	Jó-	.
8G/Lyy	.	8b/yy 8ddyy	.	8dd\	-zio	.
[8D/Jyy	.	8a#X/Jyy 8cc#Xyy	.	8cc#X\	dał	.
!	!	!LO:SIC:v:n=2:s=8ccn	!	!	!	!
8D/L]yy	4.GG\yy	8an/Lyy 8cc#yy	.	8ccn\	wstą-	.
8G/yy	.	[8cc#/yy 8eeyy	.	8ee\	-żkę	.
(8D/Jyy	.	8f#/Jyy 8cc#]yy 8ddyy	.	8dd\	pas-	.
=34	=34	=34	=34	=34	=34	=34
.	.	8qdd/yy	.	.	.	.
*	*	*^	*	*	*	*
8G/L)yy	2.GG\yy	8.g/Lyy	4.B\yy	.	4g/	-tér-	.
8D/yy	.	.	.	.	.	.	.
.	.	16f#/Kyy	.	.	.	.	.
8G/Jyy	.	8g/Jyy	.	.	8g,/	-ce,	.
!LO:TX:a:t=cres_cen_do.:problem:dynamics with extention lines	!	!LO:TX:t=P:problem:skreślona nuta 8.f	!	!	!	!	!
!	!	!	!	!LO:HP:t=cres_cen_do:ext=ut	!	!	!
(8F#/Lyy	.	8.a/Lyy	4.d\yy	<	8.a/L	An-	.
8D/yy	.	.	.	.	.	.	.
!	!	!LO:TX:t=P:problem:skreślona 16e	!	!	!	!	!
.	.	16g/Kyy	.	.	16g/Jk	.	.
8F#/J)yy	.	8a/Jyy	.	.	8a/	-toś	.
=35	=35	=35	=35	=35	=35	=35	=35
8G/Lyy	2.GG\yy	8.g/Lyy 8.byy	4.ryy	.	8.b/L	od-	.
8D/yy	.	.	.	.	.	.	.
.	.	16f#/Kyy 16ayy	.	.	16a#X/Jk	.	.
8G/Jyy	.	8g/Jyy 8byy	.	.	8b/	-dał	.
8A/Lyy	.	8.dd/Lyy	4f#\yy	.	8.dd\L	swo-	.
8D/yy	.	.	.	.	.	.	.
.	.	16cc/Kyy	.	.	16cc#X\Jk	.	.
8A/Jyy	.	8dd/Jyy	8ryy	[	8dd\	-je	.
!	!	!	!	!	!LO:LB:g=original	!	!
=36	=36	=36	=36	=36	=36	=36	=36
8B/Lyy	2.GG\yy	[4.gg/yy	4.g\yy	>	[4.gg\	ser-	.
8D/yy	.	.	.	.	.	.	.
8B/Jyy	.	.	.	.	.	.	.
!LO:TX:t=P:problem:skreślona nuta 8A	!	!	!	!	!	!	!
8c/Lyy	.	8gg/L]yy	4.a\yy	.	4gg\]	.	.
8D/yy	.	16ff#/Lyy	.	.	.	.	.
.	.	16ee/yy	.	.	.	.	.
8A/Jyy	.	16dd/yy	.	.	8dd\	-ce	.
.	.	16cc/JJyy	.	.	.	.	.
*	*	*v	*v	*	*	*	*
=37	=37	=37	=37	=37	=37	=37
8ryy	2.GG\yy	8b/Lyy	]	8b\L	lecz	.
(8B/Lyy	.	8d/yy 8ddyyyy	.	8dd\J	.	.
8A#X/Jyy	.	8e/Jyy 8cc#Xyy	.	8cc#X\	i	.
8An/Lyy	.	8f#/Lyy 8ccnyy	.	8ccn\L	z_Jó-	.
8G/yy	.	8g/yy 8eeyy	.	8ee\J	.	.
8F#/Jyy	.	8a/Jyy 8ddyy	.	8dd\	-zia	.
=38	=38	=38	=38	=38	=38	=38
.	.	8qdd/yy	.	.	.	.
8G/L)yy	4.GG\yy	4.B/yy 4.gyy	.	4g/	i	.
(<16D/Lyy	.	.	.	.	.	.
16E/J)yy	.	.	.	.	.	.
[8G/Jyy	.	.	.	8g/	z_An-	.
.	.	8qdd/yy	.	.	.	.
8G/L]yy	4.GG\yy	4.d/yy 4.ayy	.	8.a/L	-to-	.
(<16D/Lyy	.	.	.	.	.	.
16F#/J)yy	.	.	.	16g/Jk	.	.
[8G/Jyy	.	.	.	8a,/	-sia	.
!	!	!	!	!LO:LB:g=original	!	!
=39	=39	=39	=39	=39	=39	=39
*	*	*^	*	*	*	*
!	!LO:TX:t=P:problem:mixed beam	!	!	!	!LO:SIC:l:v:s=śmie	!	!
8G/]yy	8GG/Lyy	4.b/yy	2.g\yy	.	8.b\	smie-	.
8ryy	(>8G\yy	.	.	.	.	.	.
.	.	.	.	.	16a\	-je	.
8ryy	8F#\Jyy	.	.	.	8b\	się	.
!	!LO:TX:t=P:problem:mixed beam	!	!	!	!	!	!
4.ryy	8E\Lyy	4.cc#X/yy	.	.	8cc#X\	pierz-	.
.	8AA/)yy	.	.	.	8b\	-chli-	.
.	[8A\Jyy	.	.	.	8cc#\	-wa	.
*v	*v	*	*	*	*	*	*
=40	=40	=40	=40	=40	=40	=40
8D\yy 8A]yy	8dd/yy	8f#\yy	.	4dd\	Zo-	.
8ryy	8ryy	8ryy	.	.	.	.
8ryy	8ryy	2ryy	.	16cc#X\	-sia	.
.	.	.	.	16dd\	La,	.
(4.BB/yy	8ryy	.	.	4gg\	la...	.
!	!	!	!	!LO:PB:g=original	!	!
=-	=-	=-	=-	=-	=-	=-
.	8B/yy 8dyy 8gyy	.	.	.	.	.
.	8ryy	.	.	16cc#\yy	[la	.
.	.	.	.	16dd\yy	la	.
*	*v	*v	*	*	*	*
=41	=41	=41	=41	=41	=41
4.C/yy	8ryy	.	4ff#\yy	la	.
.	8A/yy 8dyy 8f#yy	.	.	.	.
.	8ryy	.	16cc#X\yy	la	.
.	.	.	16dd\yy	la	.
4.BB/yy	8ryy	.	8gg\yy	la	.
.	8B/yy 8dyy 8gyy	.	8ryy	.	.
.	8ryy	.	16cc#\yy	la	.
.	.	.	16dd\yy	la	.
=42	=42	=42	=42	=42	=42
!	!	!LO:DY:b=2	!	!	!
4.CC/yy 4.Cyy	8ryy	sf	[4.ff#\yy	la	.
.	8A/Lyy 8d#Xyy 8f#yy	.	.	.	.
.	8A/Jyy 8d#yy 8f#yy	.	.	.	.
4.CC#X/)yy 4.C#Xyy	8ryy	.	8ff#\L]yy	.	.
.	8A/Lyy 8eyy 8gyy	.	8ee\Jyy	la	.
.	8A/Jyy 8eyy 8gyy	.	8g/yy	la	.
=43	=43	=43	=43	=43	=43
*	*^	*	*	*	*
!LO:TX:t=P:problem:mixed beam	!	!	!	!	!	!
(8D\Lyy	8ryy	4.ryy	.	(8b\yy	la	.
8DD^/J)yy	(8d^>/Lyy 8gyy 8byy	.	.	4dd\)yy	.	.
8ryy	8c#X/Jyy 8a#Xyy	.	.	.	.	.
!LO:TX:t=P:problem:mixed beam	!	!	!	!	!	!
(8D\Lyy	8.an/Lyy	4.cn\yy	.	8a\yy	la	.
8DD^/J)yy	.	.	.	4dd\yy	.	.
.	16e/Kyy	.	.	.	.	.
8ryy	8f#/J)yy	.	.	.	.	.
*	*v	*v	*	*	*	*
=44	=44	=44	=44	=44	=44
!LO:TX:t=P:problem:mixed beam	!	!	!	!	!
8GG/Lyy	(8.B^^/Lyy 8.gyy	.	4g/yy	la]	.
8D\yy 8Byy	.	.	.	.	.
!	!LO:TX:b:t=scherzando.	!	!	!	!
.	16dd/Lyy	.	.	.	.
8GG/Jyy	16ee/yy	.	8ryy	.	.
.	16gg/JJyy	.	.	.	.
!LO:TX:t=P:problem:mixed beam	!	!	!	!	!
8D\Lyy 8Byy	16ddd\LLyy	.	4ryy	.	.
.	16eee\yy	.	.	.	.
8GG/yy	16ggg\yy	.	.	.	.
.	16eee\yy	.	.	.	.
8D\Jyy 8Byy	16ddd\yy	.	8ryy	.	.
.	16gg\JJyy	.	.	.	.
=45	=45	=45	=45	=45	=45
!LO:TX:t=P:problem:mixed beam	!	!	!	!	!
8GG/Lyy	16ee/LLyy	.	2.ryy	.	.
.	16dd/yy	.	.	.	.
8D\yy 8Byy	16g/yy	.	.	.	.
.	16dd/yy	.	.	.	.
8GG/Jyy	16ee/yy	.	.	.	.
.	16gg/JJ)yy	.	.	.	.
!LO:TX:t=P:problem:mixed beam	!	!	!	!	!
8D\Lyy 8cyy	8a/Lyy 8ff#yy|	.	.	.	.
8GG/yy	8g/yy 8eeyy|	.	.	.	.
8D\Jyy 8cyy	8f#/Jyy 8ddyy|	.	.	.	.
=46	=46	=46	=46	=46	=46
!LO:TX:t=P:problem:mixed beam	!	!	!	!	!
8GG/Lyy	8.g^^\Lyy	.	2.ryy	.	.
8D\yy 8Byy	.	.	.	.	.
.	16dd\Lyy	.	.	.	.
8GG/Jyy	16ee\yy	.	.	.	.
.	16gg\JJyy	.	.	.	.
!LO:TX:t=P:problem:mixed beam	!	!	!	!	!
8D\Lyy 8Byy	16ddd\LLyy	.	.	.	.
.	16eee\yy	.	.	.	.
8GG/yy	16ggg\yy	.	.	.	.
.	16eee\yy	.	.	.	.
8D\Jyy 8Byy	16ddd\yy	.	.	.	.
.	16gg\JJyy	.	.	.	.
=47	=47	=47	=47	=47	=47
*>A3	*>A3	*	*>A3	*	*
!LO:TX:t=P:problem:mixed beam	!	!	!	!	!
8GG/L	16ee/LL	.	2.ryy	.	.
.	16dd/	.	.	.	.
8D\ 8B	16g/	.	.	.	.
.	16dd/	.	.	.	.
8GG/J	16ee/	.	.	.	.
.	16gg/JJ	.	.	.	.
8D\L 8A|	8f#/L 8dd|	.	.	.	.
8D\ 8A|	8f#/ 8cc|	.	.	.	.
8D\J 8c|	8f#/J 8a|	.	.	.	.
=48	=48	=48	=48	=48	=48
4G\ 4B	4g/	.	2.ryy	.	.
8r	8r	.	.	.	.
4G\: 4d>: 4g>: 4b>:	4b:/ 4gg: 4ddd:	.	.	.	.
8ryy	8r	.	.	.	.
=49	=49	=49	=49	=49	=49
4G\: 4d>: 4g>: 4b>:	4dd:/ 4bb: 4ggg:	.	2.ryy	.	.
8r	8r	.	.	.	.
4r	4r	.	.	.	.
8r	8r	.	.	.	.
!!LO:LB:g=original
==	==	==	==	==	==
*-	*-	*-	*-	*-	*-
!!!system-decoration: s1,{(s2,s3)}
!!!RDF**kern: < = below
!!!RDF**kern: > = above
!!!ENC: Marta Chmielewska
!!!END: 2021-04-16
!!!ENC:Kamil Watkowski
!!!END:2021-04-01
!!!RDF**kern: | = vertical stroke
